X:1
T:Ny en
R:Polska
C:Jonas Brunskog
M:3/4
L:1/8
K:Dm
(D|:d)c BG A^F| GD dc BG| A2 A3(D|d)c BG A^F|GD CE D2| D4 z(D:|
|:D/(C/D/)E/ F/A/G2 d|d/(c/d/)e/ f/a/g2 g|g^f ec d2|d3/2c/ BA G2|
dc BG A^F| ^FD d3/2c/ BG|GD CE D2| D4 z(D:|
d)c BG A^F| GD dc BG| A2 A3(D|d)c BG A^F|GD CE A,C|D4 z2 |

